raw-svg/tiktok.svg

<svg fill="none" height="24" viewBox="0 0 24 24" width="24" xmlns="http://www.w3.org/2000/svg"><path d="m19 10.5594c-1.3763.0029-2.7187-.4267-3.8375-1.22815v5.58745c-.0003 1.0349-.3166 2.0449-.9065 2.8952-.59.8502-1.4254 1.5-2.3947 1.8625-.9692.3625-2.02605.4205-3.02913.1661s-1.90458-.809-2.58392-1.5896c-.67935-.7806-1.10416-1.75-1.21761-2.7786-.11346-1.0286.08985-2.0673.58272-2.9773.49288-.9099 1.25183-1.6476 2.17535-2.1145s1.96758-.64068 2.99259-.49812v2.80942c-.4687-.1476-.97201-.1433-1.43808.0123-.46607.1555-.87107.4544-1.15719.8538-.28611.3994-.43871.8791-.43599 1.3704s.1606.9693.45111 1.3655c.29052.3963.6988.6906 1.16656.841s.97109.1491 1.43809-.0036.8738-.449 1.1624-.8467c.2885-.3977.444-.8764.4443-1.3678v-10.9187h2.75c-.0015.23258.0183.46481.0594.69375.0956.51031.2943.99576.5839 1.42669.2896.43092.6641.79825 1.1005 1.07956.6211.41026 1.3493.62871 2.0937.62812z" fill="#000"/></svg>

<svg width="24" height="24" viewBox="0 0 24 24" fill="none" xmlns="http://www.w3.org/2000/svg">
<path d="M19 10.5594C17.6237 10.5623 16.2813 10.1327 15.1625 9.33125V14.9187C15.1622 15.9536 14.8459 16.9636 14.256 17.8139C13.666 18.6641 12.8306 19.3139 11.8613 19.6764C10.8921 20.0389 9.83525 20.0969 8.83217 19.8425C7.82909 19.5881 6.92759 19.0335 6.24825 18.2529C5.5689 17.4723 5.14409 16.5029 5.03064 15.4743C4.91718 14.4457 5.12049 13.407 5.61336 12.497C6.10624 11.5871 6.86519 10.8494 7.78871 10.3825C8.71223 9.9156 9.75629 9.74182 10.7813 9.88438V12.6938C10.3126 12.5462 9.80929 12.5505 9.34322 12.7061C8.87715 12.8616 8.47215 13.1605 8.18603 13.5599C7.89992 13.9593 7.74732 14.439 7.75004 14.9303C7.75276 15.4216 7.91064 15.8996 8.20115 16.2958C8.49167 16.6921 8.89995 16.9864 9.36771 17.1368C9.83547 17.2872 10.3388 17.2859 10.8058 17.1332C11.2728 16.9805 11.6796 16.6842 11.9682 16.2865C12.2567 15.8888 12.4122 15.4101 12.4125 14.9187V4H15.1625C15.161 4.23258 15.1808 4.46481 15.2219 4.69375C15.3175 5.20406 15.5162 5.68951 15.8058 6.12044C16.0954 6.55136 16.4699 6.91869 16.9063 7.2C17.5274 7.61026 18.2556 7.82871 19 7.82812V10.5594Z" fill="black"/>
</svg>
